X:1
T:God Save the King
M:3/4
L:1/4
K:F
 F F G| E3/2 F/2 G| A A B| A3/2 G/2 F| G F E| F3| c c c| c3/2 B/2 A|\
 B B B| B3/2 A/2 G| AB/2-A/2G/2-F/2| A3/2 B/2 c|d/2-B/2 A- G3/4 F/4|\
 F3|

